src/assets/logo.svg

<?xml version="1.0" encoding="UTF-8"?>
<svg id="Layer_1" data-name="Layer 1" xmlns="http://www.w3.org/2000/svg" viewBox="0 0 685 382.84">
  <defs>
    <style>
      .cls-1 {
        fill: #08605f;
      }

      .cls-2 {
        fill: #177e89;
        opacity: .6;
      }
    </style>
  </defs>
  <rect class="cls-2" x="561.48" y="15" width="12.71" height="145" transform="translate(655.33 -480.34) rotate(90)"/>
  <rect class="cls-2" x="561.48" y="97.29" width="12.71" height="145" transform="translate(737.62 -398.04) rotate(90)"/>
  <rect class="cls-2" x="114.48" y="15" width="12.71" height="145" transform="translate(208.33 -33.34) rotate(90)"/>
  <rect class="cls-2" x="114.48" y="97.29" width="12.71" height="145" transform="translate(290.62 48.96) rotate(90)"/>
  <g>
    <path class="cls-1" d="M516.19,119.98c-2.34-40.24-18.36-76.81-43.46-105.13-4.65-5.24-9.61-10.2-14.85-14.85l-14.87,14.87c5.28,4.61,10.24,9.57,14.85,14.85,23.44,26.88,37.65,62.03,37.65,100.51s-14.2,73.62-37.65,100.51c-4.61,5.28-9.57,10.24-14.85,14.85l14.87,14.87c5.24-4.65,10.2-9.6,14.85-14.85,25-28.21,40.99-64.59,43.43-104.63h168.84v-21h-168.81Z"/>
    <path class="cls-1" d="M227.15,230.73c-23.44-26.88-37.65-62.03-37.65-100.51s14.2-73.62,37.65-100.51c4.61-5.28,9.57-10.24,14.85-14.85L227.12,0c-5.24,4.65-10.2,9.6-14.85,14.85-25.11,28.32-41.12,64.89-43.46,105.13H0v21H168.84c2.44,40.04,18.43,76.43,43.43,104.63,4.65,5.24,9.61,10.2,14.85,14.85l14.87-14.87c-5.28-4.61-10.24-9.57-14.85-14.85Z"/>
  </g>
  <g>
    <path class="cls-1" d="M280.82,78.23h-40.53v-14.63h98.65v14.63h-40.73v118.62h-17.4V78.23Z"/>
    <path class="cls-1" d="M386.59,78.23h-40.53v-14.63h98.65v14.63h-40.72v118.62h-17.4V78.23Z"/>
  </g>
  <path class="cls-1" d="M105.67,298.26h-28.38v-10.24h69.08v10.24h-28.52v83.06h-12.18v-83.06Z"/>
  <path class="cls-1" d="M155.37,283.03h12.18v41.8h.28c1.94-3.46,4.98-6.51,8.72-8.58,3.6-2.08,7.89-3.46,12.46-3.46,9,0,23.39,5.54,23.39,28.65v39.87h-12.18v-38.48c0-10.8-4.01-19.93-15.5-19.93-7.89,0-14.12,5.54-16.33,12.18-.69,1.66-.83,3.46-.83,5.81v40.42h-12.18v-98.28Z"/>
  <path class="cls-1" d="M232.19,335.22c0-7.89-.14-14.67-.55-20.9h10.66l.42,13.15h.55c3.04-9,10.38-14.67,18.55-14.67,1.38,0,2.35,.14,3.46,.42v11.49c-1.25-.28-2.49-.42-4.15-.42-8.58,0-14.67,6.51-16.33,15.64-.28,1.66-.55,3.6-.55,5.67v35.71h-12.04v-46.1Z"/>
  <path class="cls-1" d="M291.58,295.49c.14,4.15-2.91,7.48-7.75,7.48-4.29,0-7.34-3.32-7.34-7.48s3.18-7.61,7.61-7.61,7.47,3.32,7.47,7.61Zm-13.57,85.83v-67h12.18v67h-12.18Z"/>
  <path class="cls-1" d="M311.65,381.32v-57.72h-9.41v-9.27h9.41v-3.18c0-9.41,2.08-18,7.75-23.39,4.57-4.43,10.66-6.23,16.33-6.23,4.29,0,8.03,.97,10.38,1.94l-1.66,9.41c-1.8-.83-4.29-1.52-7.75-1.52-10.38,0-13.01,9.14-13.01,19.38v3.6h16.2v9.27h-16.2v57.72h-12.04Z"/>
  <path class="cls-1" d="M367.02,295.07v19.24h17.44v9.27h-17.44v36.13c0,8.31,2.35,13.01,9.14,13.01,3.18,0,5.54-.42,7.06-.83l.55,9.14c-2.35,.97-6.09,1.66-10.8,1.66-5.68,0-10.24-1.8-13.15-5.12-3.46-3.6-4.71-9.55-4.71-17.44v-36.54h-10.38v-9.27h10.38v-16.06l11.91-3.18Z"/>
  <path class="cls-2" d="M416.3,298.26h-28.38v-10.24h69.08v10.24h-28.52v83.06h-12.18v-83.06Z"/>
  <path class="cls-2" d="M478.87,295.49c.14,4.15-2.91,7.48-7.75,7.48-4.29,0-7.34-3.32-7.34-7.48s3.18-7.61,7.61-7.61,7.47,3.32,7.47,7.61Zm-13.57,85.83v-67h12.18v67h-12.18Z"/>
  <path class="cls-2" d="M555.56,283.03v80.98c0,5.95,.14,12.74,.55,17.3h-10.94l-.55-11.63h-.28c-3.74,7.48-11.9,13.15-22.84,13.15-16.2,0-28.65-13.7-28.65-34.05-.14-22.29,13.7-35.99,30.04-35.99,10.24,0,17.17,4.84,20.21,10.24h.28v-40h12.18Zm-12.18,58.55c0-1.52-.14-3.6-.55-5.12-1.8-7.75-8.44-14.12-17.58-14.12-12.6,0-20.07,11.07-20.07,25.89,0,13.57,6.64,24.78,19.8,24.78,8.17,0,15.64-5.4,17.86-14.54,.42-1.66,.55-3.32,.55-5.26v-11.63Z"/>
  <path class="cls-2" d="M582.56,350.03c.28,16.47,10.8,23.26,22.98,23.26,8.72,0,13.98-1.52,18.55-3.46l2.08,8.72c-4.29,1.94-11.63,4.15-22.29,4.15-20.63,0-32.95-13.57-32.95-33.78s11.9-36.13,31.42-36.13c21.87,0,27.69,19.24,27.69,31.56,0,2.49-.28,4.43-.42,5.67h-47.07Zm35.71-8.72c.14-7.75-3.18-19.79-16.89-19.79-12.32,0-17.72,11.35-18.69,19.79h35.58Z"/>
</svg>

<?xml version="1.0" encoding="UTF-8"?>
<svg
  id="Layer_1"
  data-name="Layer 1"
  viewBox="0 0 685 382.84"
  xmlns="http://www.w3.org/2000/svg"
>
  <defs id="defs1">
    <style id="style1">
      .cls-1 {
        fill: #08605f;
      }

      .cls-2 {
        fill: #177e89;
        opacity: .6;
      }
    </style>
  </defs>

  <rect
    class="cls-2"
    x="561.48"
    y="15"
    width="12.71"
    height="145"
    transform="translate(655.33 -480.34) rotate(90)"
    id="rect1"
    style="fill:#ff6b6b;fill-opacity:1;opacity:1"
  />
  <rect
    class="cls-2"
    x="561.48"
    y="97.29"
    width="12.71"
    height="145"
    transform="translate(737.62 -398.04) rotate(90)"
    id="rect2"
    style="fill:#ff6b6b;fill-opacity:1;opacity:1"
  />
  <rect
    class="cls-2"
    x="114.48"
    y="15"
    width="12.71"
    height="145"
    transform="translate(208.33 -33.34) rotate(90)"
    id="rect3"
    style="fill:#ff6b6b;fill-opacity:1;opacity:1"
  />
  <rect
    class="cls-2"
    x="114.48"
    y="97.29"
    width="12.71"
    height="145"
    transform="translate(290.62 48.96) rotate(90)"
    id="rect4"
    style="fill:#ff6b6b;fill-opacity:1;opacity:1"
  />

  <path
    class="cls-1"
    d="M 516.19,119.98 C 513.85,79.74 497.83,43.17 472.73,14.85 468.08,9.61 463.12,4.65 457.88,0 l -14.87,14.87 c 5.28,4.61 10.24,9.57 14.85,14.85 23.44,26.88 37.65,62.03 37.65,100.51 0,38.48 -14.2,73.62 -37.65,100.51 -4.61,5.28 -9.57,10.24 -14.85,14.85 l 14.87,14.87 c 5.24,-4.65 10.2,-9.6 14.85,-14.85 25,-28.21 40.99,-64.59 43.43,-104.63 H 685 v -21 z"
    id="path4"
    style="fill:#2ec4b6;fill-opacity:1"
  />
  <path
    class="cls-1"
    d="M 227.15,230.73 C 203.71,203.85 189.5,168.7 189.5,130.22 189.5,91.74 203.7,56.6 227.15,29.71 231.76,24.43 236.72,19.47 242,14.86 L 227.12,0 c -5.24,4.65 -10.2,9.6 -14.85,14.85 -25.11,28.32 -41.12,64.89 -43.46,105.13 H 0 v 21 h 168.84 c 2.44,40.04 18.43,76.43 43.43,104.63 4.65,5.24 9.61,10.2 14.85,14.85 l 14.87,-14.87 c -5.28,-4.61 -10.24,-9.57 -14.85,-14.85 z"
    id="path5"
    style="fill:#2ec4b6;fill-opacity:1"
  />
  <path
    class="cls-1"
    d="M 280.82,78.23 H 240.29 V 63.6 h 98.65 v 14.63 h -40.73 v 118.62 h -17.4 V 78.23 Z"
    id="path6"
    style="fill:#2ec4b6;fill-opacity:1"
  />
  <path
    class="cls-1"
    d="M 386.59,78.23 H 346.06 V 63.6 h 98.65 v 14.63 h -40.72 v 118.62 h -17.4 V 78.23 Z"
    id="path7"
    style="fill:#ff6b6b;fill-opacity:1"
  />
  <path
    class="cls-1"
    d="M105.67,298.26h-28.38v-10.24h69.08v10.24h-28.52v83.06h-12.18v-83.06Z"
    id="path8"
    style="fill:#2ec4b6;fill-opacity:1"
  />
  <path
    class="cls-1"
    d="M155.37,283.03h12.18v41.8h.28c1.94-3.46,4.98-6.51,8.72-8.58,3.6-2.08,7.89-3.46,12.46-3.46,9,0,23.39,5.54,23.39,28.65v39.87h-12.18v-38.48c0-10.8-4.01-19.93-15.5-19.93-7.89,0-14.12,5.54-16.33,12.18-.69,1.66-.83,3.46-.83,5.81v40.42h-12.18v-98.28Z"
    id="path9"
    style="fill:#2ec4b6;fill-opacity:1"
  />
  <path
    class="cls-1"
    d="M232.19,335.22c0-7.89-.14-14.67-.55-20.9h10.66l.42,13.15h.55c3.04-9,10.38-14.67,18.55-14.67,1.38,0,2.35,.14,3.46,.42v11.49c-1.25-.28-2.49-.42-4.15-.42-8.58,0-14.67,6.51-16.33,15.64-.28,1.66-.55,3.6-.55,5.67v35.71h-12.04v-46.1Z"
    id="path10"
    style="fill:#2ec4b6;fill-opacity:1"
  />
  <path
    class="cls-1"
    d="M291.58,295.49c.14,4.15-2.91,7.48-7.75,7.48-4.29,0-7.34-3.32-7.34-7.48s3.18-7.61,7.61-7.61,7.47,3.32,7.47,7.61Zm-13.57,85.83v-67h12.18v67h-12.18Z"
    id="path11"
    style="fill:#2ec4b6;fill-opacity:1"
  />
  <path
    class="cls-1"
    d="M311.65,381.32v-57.72h-9.41v-9.27h9.41v-3.18c0-9.41,2.08-18,7.75-23.39,4.57-4.43,10.66-6.23,16.33-6.23,4.29,0,8.03,.97,10.38,1.94l-1.66,9.41c-1.8-.83-4.29-1.52-7.75-1.52-10.38,0-13.01,9.14-13.01,19.38v3.6h16.2v9.27h-16.2v57.72h-12.04Z"
    id="path12"
    style="fill:#2ec4b6;fill-opacity:1"
  />
  <path
    class="cls-1"
    d="M367.02,295.07v19.24h17.44v9.27h-17.44v36.13c0,8.31,2.35,13.01,9.14,13.01,3.18,0,5.54-.42,7.06-.83l.55,9.14c-2.35,.97-6.09,1.66-10.8,1.66-5.68,0-10.24-1.8-13.15-5.12-3.46-3.6-4.71-9.55-4.71-17.44v-36.54h-10.38v-9.27h10.38v-16.06l11.91-3.18Z"
    id="path13"
    style="fill:#2ec4b6;fill-opacity:1"
  />
  <path
    class="cls-2"
    d="M416.3,298.26h-28.38v-10.24h69.08v10.24h-28.52v83.06h-12.18v-83.06Z"
    id="path14"
    style="fill:#ff6b6b;fill-opacity:1;opacity:1"
  />
  <path
    class="cls-2"
    d="M478.87,295.49c.14,4.15-2.91,7.48-7.75,7.48-4.29,0-7.34-3.32-7.34-7.48s3.18-7.61,7.61-7.61,7.47,3.32,7.47,7.61Zm-13.57,85.83v-67h12.18v67h-12.18Z"
    id="path15"
    style="fill:#ff6b6b;fill-opacity:1;opacity:1"
  />
  <path
    class="cls-2"
    d="M555.56,283.03v80.98c0,5.95,.14,12.74,.55,17.3h-10.94l-.55-11.63h-.28c-3.74,7.48-11.9,13.15-22.84,13.15-16.2,0-28.65-13.7-28.65-34.05-.14-22.29,13.7-35.99,30.04-35.99,10.24,0,17.17,4.84,20.21,10.24h.28v-40h12.18Zm-12.18,58.55c0-1.52-.14-3.6-.55-5.12-1.8-7.75-8.44-14.12-17.58-14.12-12.6,0-20.07,11.07-20.07,25.89,0,13.57,6.64,24.78,19.8,24.78,8.17,0,15.64-5.4,17.86-14.54,.42-1.66,.55-3.32,.55-5.26v-11.63Z"
    id="path16"
    style="fill:#ff6b6b;fill-opacity:1;opacity:1"
  />
  <path
    class="cls-2"
    d="M582.56,350.03c.28,16.47,10.8,23.26,22.98,23.26,8.72,0,13.98-1.52,18.55-3.46l2.08,8.72c-4.29,1.94-11.63,4.15-22.29,4.15-20.63,0-32.95-13.57-32.95-33.78s11.9-36.13,31.42-36.13c21.87,0,27.69,19.24,27.69,31.56,0,2.49-.28,4.43-.42,5.67h-47.07Zm35.71-8.72c.14-7.75-3.18-19.79-16.89-19.79-12.32,0-17.72,11.35-18.69,19.79h35.58Z"
    id="path17"
    style="fill:#ff6b6b;fill-opacity:1;opacity:1"
  />
</svg>
